X:19
T:New Oyster Girle,The. WHG.019
R:country dance
S:W.H.Giles MS,Bampton,Oxfordshire,1839p20
O:England
H:donated by Mrs W.R.Kettlewell to VWML,Apr 1927.
A:Bampton, Oxfordshire
N:Bar 4 in MS is |B3 A Bc|; bars 7 & 8 are |ed B4 dc A2|G4 G4:|;
N:bar 4 is |B6G2 (Bc)|; B music – bar 4 is |d6 (B2G2)|, last bar D4
N:C music – last bar |G4-G4|. Beams regularised.
W:see notes
Z:PJHeadford – VMP 2009
M:2/4
L:1/16
Q:1/4=120
K:G
|:(Bc)|ded2 BAG2|FGA2 D3G|G2AB c3B|B3A B2c2|
ded2 Bcd2|dge2 c3d|edB2 dcA2|G4 G2:|
GA|B2BB B2BB|B2BB B2(cB)|A2AA A2Bc|d6 (BG)|
G2GG GFG2|A2BG d2cB|ABA2 GFE2|D6||
Bc|d2d2 B4|c2c2 G4|G2AB c3B|B4G2 (Bc)|
ded2 Bcd2|dge2 c3d|edB2 dcA2|G4-G2|]

